!!!COM: Scriabin, Alexander
!!!OTL@@FR: Prélude en do majeur
!!!OTL@@EN: Prelude in C Major
!!!OPR@@FR: 6 Préludes
!!!OPR@@EN: 6 Preludes
!!!OPS: 13
!!!ONM: 1
!!!ODT: 1895
!!!AGN: Prelude
**kern	**kern	**dynam
*staff2	*staff1	*staff1/2
*Ipiano	*Ipiano	*
*clefF4	*clefG2	*
*k[]	*k[]	*
*C:	*C:	*
*M3/4	*M3/4	*
=1	=1	=1
4FFF 4FF	4A 4d 4f	p
4GGG 4GG	4G 4B 4e	<
4AAA 4AA	4E 4G 4c	[
=2	=2	=2
*	*^	*
4AAA 4AA	4F 4c	8.dL	>
.	.	16eJk	)
4DDD 4DD	4F 4c	4f	)
4GGG 4GG	4B	8.eL	]
.	.	16fJk	.
*	*v	*v	*
=3	=3	=3
4FFF 4FF	4A 4c 4a	<
4GGG 4GG	4B 4e 4g	(
4AAA 4AA	4G 4c 4e	[
=4	=4	=4
4AAA 4AA	8.FL 8.c 8.d 8.f	>
.	[16cJk 16e 16g	)
4DDD 4DD	4c] 4f 4a	]
*	*^	*
4GGG 4GG	8.eL	4G 4B 4g	.
.	16dJk	.	.
*	*v	*v	*
=5	=5	=5
4..FF 4..F	4r	.
.	4G 4c 4g	.
16FF 16F	.	.
8.EEL 8.E	4A 4c 4g 4a	.
16DDJk 16D	.	.
!!LO:LB:g=original
=6	=6	=6
4GG 4G	4B 4d 4g 4b	<
8.FFL 8.F	4c 4f 4a 4cc	.
16EEJk 16E	.	.
8.DDL 8.D	4d 4f 4a 4dd	.
16CCJk 16C	.	.
=7	=7	=7
4AA 4A	4e 4a 4cc 4ee	.
8.FFL 8.F	4f 4a 4cc 4ff	.
16DDJk 16D	.	.
8.CCL 8.C	4a 4cc 4ff 4aa	.
16AAAJk 16AA	.	.
=8	=8	=8
8.FL 8.f	4cc 4ff 4ccc	f
16DDDJk 16DD	.	.
4F 4f	4dd 4aa 4ccc 4ddd	>
4GGG 4GG	4G 4B 4d	]
=9	=9	=9
4FFF 4FF	4A 4d 4f	p <
4GGG 4GG	4G 4B 4e	(
4AAA 4AA	4E 4G 4c	[
=10	=10	=10
*	*^	*
4AAA 4AA	8.FL 8.c	8.dL	>
.	[16AJk 16c	16eJ	)
4DDD 4DD	4A] 4d	4f	)
4GGG 4GG	4B	8eL	]
.	.	8fJ	.
*	*v	*v	*
!!LO:LB:g=original
=11	=11	=11
4FFF 4FF	4A 4c 4a	<
4GGG 4GG	4B 4e 4g	(
4AAA 4AA	4G 4c 4e	[
=12	=12	=12
*	*^	*
4AAA 4AA	8.FL 8.c	8.fL	>
.	[16cJk 16e	16gJ	)
4DDD 4DD	4c] 4f	4a	)
4GGG 4GG	8eL	4F 4B 4g	]
.	8dJ	.	.
*	*v	*v	*
=13	=13	=13
4..BBB-X 4..BB-X	4r	.
*	*clefF4	*
.	4C 4F 4c	<
16BBB- 16BB-	.	.
8.AAAL 8.AA	4D 4F 4c 4d	.
16GGGJk 16GG	.	.
=14	=14	=14
4CC 4C	4E 4G 4c 4e	.
8.BBB-XL 8.BB-X	4F 4B-X 4d 4f	.
16AAAJk 16AA	.	.
8.GGGL 8.GG	4G 4B- 4d 4g	.
16FFFJk 16FF	.	.
*	*clefG2	*
=15	=15	=15
4DD 4D	4A 4d 4f 4a	.
8.BBB-XL 8.BB-X	4B-X 4d 4f 4b-X	.
16GGGJk 16GG	.	.
8.FFFL 8.FF	4d 4f 4b- 4dd	.
16DDDJk 16DD	.	.
!!LO:LB:g=original
=16	=16	=16
8.BB-XL 8.B-X	4f 4b-X 4dd 4ff	f
16EEEJk 16EE	.	.
4BBn 4Bn	4d 4e 4g#X 4ee	.
8qAAA 8qAA	.	.
4AA 4A	4c 4e 4a	> ]
=17	=17	=17
*	*^	*
4AA 4A	2B-X 2d	4..b-X	p
4GGn 4Gn	.	.	.
.	.	16b-	.
4FF 4F	4B- 4d	8.aL	.
.	.	16gJk	.
*	*v	*v	*
=18	=18	=18
4..EE 4..E	4B-X 4g 4cc#X	<
.	4B- 4g 4dd	(
16EE 16E	.	(
8.DDL 8.D	4B- 4g 4ee	(
16CC#XJk 16C#X	.	[
=19	=19	=19
4BB-X 4B-X	2e 2g 2cc#X	>
8AAL 8A	.	)
8GGJ 8G	.	)
*	*^	*
12r	4c#X 4e	8.b-XL	]
12FFL 12F	.	.	.
12BB-J 12B-	.	.	.
.	.	16b-Jk	.
=20	=20	=20	=20
12r	4d 4f	2b-X	.
12EEL 12E	.	.	.
12BB-XJ 12B-X	.	.	.
12r	4c#X 4g	.	.
12DDL 12D	.	.	.
12BB-J 12B-	.	.	.
12r	8d 8f	8b-	.
12AAAL 12AA	.	.	.
.	8ra	8ra	.
[12EEJ [12E	.	.	.
!!LO:LB:g=original
=21	=21	=21	=21
4EE] 4E]	2F 2A	4..f	.
4DD 4D	.	.	.
.	.	16f	.
4CCn 4Cn	4F 4A	8.eL	.
.	.	16dJk	.
*	*v	*v	*
=22	=22	=22
4..BBB 4..BB	4F 4d 4g#X	.
.	4F 4d 4a	.
16BBB 16BB	.	.
8.AAAL 8.AA	4F 4d 4b	<
16GGG#XJk 16GG#X	.	.
=23	=23	=23
4AAA 4AA	4F 4c 4f 4cc	.
4AA 4A	4F 4c 4f	.
12r	4E 4c 4e	.
12AAL 12A	.	.
12DDJ 12D	.	.
=24	=24	=24
*	*^	*
12r	2F 2A	8.fL	.
12AAAL 12AA	.	.	<
12DDJ 12D	.	.	.
.	.	16cJk	.
12r	.	4c	.
12GGGL 12GG	.	.	.
12DDJ 12D	.	.	.
*	*v	*v	*
12r	8F 8B 8d	.
12FFFL 12FF	.	.
.	8r	.
12DDJ 12D	.	.
!!LO:LB:g=original
=25	=25	=25
*^	*	*
12r	4A 4d 4f	4a 4dd 4ff	f
12GGGL 12GG	.	.	.
12EEJ 12E	.	.	<
12r	4G 4B 4e	4g 4b 4ee	(
12AAAL 12AA	.	.	(
12EEJ 12E	.	.	(
12r	4E 4G 4c	4e 4g 4cc	(
12AAAL 12AA	.	.	(
12DDJ 12D	.	.	[
=26	=26	=26	=26
12r	8.FL 8.c 8.d	8.fL 8.cc 8.dd/	>
12DDDL 12DD	.	.	)
12AAJ 12A	.	.	)
.	[16AJk 16c 16e	[16aJk 16cc 16ee	)
12r	4A] 4d 4f	4a] 4dd 4ff	]
12GGGL 12GG	.	.	.
12GGJ 12G	.	.	.
12r	8.GL 8.B 8.e	8.gL 8.b 8.ee	.
12FFFL 12FF	.	.	.
12DDJ 12D	.	.	.
.	16fJk	16ffJk	.
=27	=27	=27	=27
12r	4c 4f 4a	4cc 4ff 4aa	.
12GGGL 12GG	.	.	.
12EEJ 12E	.	.	.
12r	4B 4e 4g	4b 4ee 4gg	<
12AAAL 12AA	.	.	(
12EEJ 12E	.	.	(
12r	4G 4c 4e	4g 4cc 4ee	(
12AAAL 12AA	.	.	[
12DDJ 12D	.	.	.
!!LO:LB:g=original
=28	=28	=28	=28
12r	8.FL 8.c 8.d 8.f	8.fL 8.cc 8.dd 8.ff	>
12DDDL 12DD	.	.	)
12AAJ 12A	.	.	)
.	[16cJk 16e 16g	[16ccJk 16ee 16gg	)
12r	4c] 4f 4a	4cc] 4ff 4aa	]
12GGGL 12GG	.	.	.
12GGJ 12G	.	.	.
12r	8.BL 8.e 8.g	8.bL 8.ee 8.gg	.
12GGL 12G	.	.	.
12GJ 12g	.	.	.
.	16dJk	16ddJk	.
*v	*v	*	*
=29	=29	=29
*	*^	*
4..FF 4..F	12ra	12ra	ff
.	6G 6c	12cL	.
.	.	12gJ	.
*	*v	*v	*
.	4g 4cc 4gg	.
16FF 16F	.	.
*	*^	*
8.EEL 8.E	4A 4c 4g	12gL	.
.	.	12a	.
.	.	12aJ 12cc 12gg 12aa	.
16DDJk 16D	.	.	.
=30	=30	=30	=30
4GG 4G	12ra	12ra	.
.	6B 6d 6g	12gL	.
.	.	12bJ	.
*	*v	*v	*
8.FFL 8.F	4cc 4ff 4aa 4ccc	.
16EEJk 16E	.	.
*	*^	*
8.DDL 8.D	12dL	4d 4f 4a	.
.	12dd	.	.
.	12ddJ 12ff 12aa 12ddd	.	.
16CCJk 16C	.	.	.
!!LO:LB:g=original
=31	=31	=31	=31
4AA 4A	12ra	12ra	.
.	12eL	6e 6a 6cc	.
.	12eeJ	.	.
*	*v	*v	*
8.FFL 8.F	4ff 4aa 4ccc 4fff\	.
16DDJk 16D	.	.
*	*^	*
8.CCL 8.C	12aL	4a 4cc 4ff	.
.	12aa	.	.
.	12aaJ 12ccc 12fff 12aaa	.	.
16AAAJk 16AA	.	.	.
*	*v	*v	*
=32	=32	=32
8.CL 8.c	8ccL 8ff	.
.	8cccJ	.
16FFFJk 16FF	.	.
*	*8va	*
8DL 8d	8..cccL 8..fff 8..cccc	.
8CCCJ 8CC	.	.
.	32ggJkk 32ggg	.
4E 4c 4e	4gg 4ccc 4ggg	.
*	*X8va	*
=33	=33	=33
*	*^	*
4CC 4C	2B-X 2e	4..b-X	f
4D-X 4d-X	.	.	.
.	.	16b-	.
4C 4c	[4e	8.aL	.
.	.	16gJk	.
=34	=34	=34	=34
[2BBn [2Bn	8.eL]	4a-X 4ddn	.
.	16fJk	.	.
.	2f	8.fL	.
.	.	16gJk	.
8BBL] 8B]	.	8.a-L	>
8BB-XJ 8B-X	.	.	.
.	.	16b-XJk	.
!!LO:LB:g=original
=35	=35	=35	=35
12AA-XL 12A-X	4f 4bn	4ff	.
12CC 12C	.	.	.
12GGJ 12G	.	.	.
[2AA- [2A-	2f 2b	4cc#X	.
.	.	4dd	.
*	*v	*v	*
=36	=36	=36
4AA-] 4A-]	2.e 2.ccn 2.ee	.
4GG 4G	.	.
4CC 4C	.	.
=37	=37	=37
*	*^	*
12CCL	2B-X 2e	4..b-X	p
12GG	.	.	.
12CJ	.	.	.
8.GL	.	.	.
[16CJk	.	16b-	.
4C] 4B-X	[4e	8.aL	.
.	.	16gJk	.
=38	=38	=38	=38
12CCL	8.eL]	4a-X 4dd	.
12FF	.	.	.
12BBnJ	.	.	.
.	16fJk	.	.
8.A-XL	2f	8.fL	.
16DJk	.	16gJk	.
4Bn	.	8.a-L	.
.	.	16b-XJk	.
!!LO:LB:g=original
=39	=39	=39	=39
12AA-XL 12A-X	4f 4bn	4ff	.
12CC 12C	.	.	.
12GGJ 12G	.	.	.
[2AA- [2A-	2f 2b	4cc#X	.
.	.	4dd	.
*	*v	*v	*
=40	=40	=40
4AA-] 4A-]	2.e 2.ccn 2.ee	.
4GG 4G	.	.
4CC 4C	.	.
=41	=41	=41
*	*^	*
12AA-XL 12A-X	4F 4B	4f	pp
12CC 12C	.	.	.
12GGJ 12G	.	.	.
[2AA- [2A-	[2F [2B	4c#X	.
.	.	4d	.
=42	=42	=42	=42
2AA-] 2A-]	2F] 2B]	2d#X	.
4GG 4G	4E 4B	4e	.
*	*v	*v	*
=43	=43	=43
2.CC 2.GG 2.C	2.E 2.G 2.c 2.e	.
==	==	==
*-	*-	*-
!!!system-decoration: {(*)}
!!!filter: flipper -a
!!!RDF**dynam: > = dim.
!!!ENC: Bryan Jacob Bell
!!!END: November 2021 to April 2022
!!!PED: Günter Philipp
!!!PTL: Ausgewählte Klavierwerke (Edition Peters)
